**kern	**kern
*clefF4	*clefG2
*k[b-]	*k[b-]
*M3/4	*M3/4
=1	=1
8D	4a
8A	.
8f	4.dd
8A	.
8D	.
8A	8cc#
=2	=2
8f	2a
8A	.
8D	.
8A	.
8f	4r
8A	.
=3	=3
8AA#	4dd
8F	.
8d	4.gg
8F	.
8AA#	.
8F	8ff
=4	=4
8d	2dd
8F	.
8AA#	.
8F	.
8d	4r
8F	.
=5	=5
8AA	4cc#
8E	.
8c#	4dd
8E	.
8AA	4ee
8E	.
=6	=6
8c#	2a
8E	.
8D	.
8A	.
8f	4r
8A	.
=7	=7
8GG	8dd
8D	8cc#
8A#	4.b
8D	.
8AA	.
8E	8cc#
=8	=8
8c#	4dd
8E	.
8D	4ee
8A	.
8f	4a
8A	.
=9	=9
8D	2a
8A	.
8f	.
8A	.
8AA#	4r
8F	.
=10	=10
8d	4r
8F	.
8AA	4ff
8E	.
8c#	4ee
8E	.
=11	=11
8D	8ee
8F	8dd
8A	2cc#
8d	.
8GG	.
8D	.
=12	=12
8A#	4dd
8D	.
8AA	4.ee
8E	.
8c#	.
8E	8ff
=13	=13
8D	4gg
8A	.
8d	4ff
8A	.
8D	4ee
8A	.
=14	=14
8f	4dd
8A	.
8D	4cc#
8A	.
8f	4dd
8A	.
=15	=15
8D	2dd
8A	.
8f	.
8A	.
8D	4r
8A	.
=16	=16
8f	4r
8A	.
8AA#	4a
8F	.
8d	4dd
8F	.
=17	=17
8AA#	8dd
8F	8cc#
8d	2a
8F	.
8AA#	.
8F	.
=18	=18
8d	4r
8F	.
8AA	4dd
8E	.
8c#	4gg
8E	.
=19	=19
8AA	8gg
8E	8ff
8c#	2dd
8E	.
8D	.
8A	.
=20	=20
8f	4r
8A	.
8GG	4cc#
8D	.
8A#	4dd
8D	.
=21	=21
8AA	4ee
8E	.
8c#	2a
8E	.
8D	.
8A	.
=22	=22
8f	4r
8A	.
8D	8dd
8A	8cc#
8f	4b
8A	.
=23	=23
8AA#	8b
8F	8cc#
8d	4dd
8F	.
8AA	4ee
8E	.
=24	=24
8c#	2.a
8E	.
8D	.
8F	.
8A	.
8d	.
=25	=25
8GG	2r
8D	.
8A#	.
8D	.
8AA	4ff
8E	.
=26	=26
8c#	4.ee
8E	.
8D	.
8A	8dd
8d	4cc#
8A	.
=27	=27
8D	4cc#
8A	.
8f	4dd
8A	.
4r	4ee
=28	=28
2.r	8ee
.	8ff
.	4gg
.	4ff
=29	=29
2.r	4ee
.	4dd
.	4cc#
=30	=30
2.r	2.dd
==	==
*-	*-
